X: 133
T: Zai yao lanban guxiang Become a young woman
L: 1/4
M: 2/4
K: C
DC/ A,/ [I:setbarnb 1]| 
DE | 
A2- | 
Ad | 
AA/ G/ | 
GE/ C/ | 
D3/E/ | 
DC | 
A,E | 
G,A | 
E2- | 
EA | 
E3/C/ | 
DC | 
A,2- | 
A,A/ z/ |]

@@@ Tune index: 8801
